public/assets/reflexology.svg

<svg width="627" height="496" viewBox="0 0 627 496" fill="none" xmlns="http://www.w3.org/2000/svg">
<path fill-rule="evenodd" clip-rule="evenodd" d="M484.637 77.6168C470.928 77.6168 465.942 61.2041 458.154 52.1973C452.581 45.7531 443.07 47.6746 440.255 38.6529C433.176 15.9669 452.123 0 476.84 0C501.558 0 518.224 14.0034 521.822 35.0543C525.421 56.1052 509.355 77.6168 484.637 77.6168Z" fill="#2C1B18"/>
<path fill-rule="evenodd" clip-rule="evenodd" d="M447.28 32.5475C440.329 45.5036 441.155 78.3679 450.139 80.6835C453.721 81.6069 461.353 79.3449 469.12 74.6633L464.245 109.156H493.034L483.124 62.9617C488.651 56.474 492.391 48.5234 491.766 39.6145C489.965 13.9443 454.231 19.5914 447.28 32.5475Z" fill="#915B3C"/>
<path fill-rule="evenodd" clip-rule="evenodd" d="M445.553 32.6202C451.059 33.6537 462.147 38.9099 470.988 46.4497C472.033 45.8959 473.231 45.5815 474.505 45.5815C478.584 45.5815 481.89 48.8038 481.89 52.7786C481.89 54.401 481.339 55.8979 480.41 57.1016C482.16 59.9861 483.354 63.0163 483.746 66.1313C489.811 66.1313 511.946 43.1825 489.895 21.5912C467.844 -1.32553e-05 435.978 30.8227 445.553 32.6202Z" fill="#2C1B18"/>
<path fill-rule="evenodd" clip-rule="evenodd" d="M516.252 208.715C514.089 238.235 374.754 325.145 373.941 327.583C373.58 328.667 388.036 362.926 417.311 430.359L405.131 435.092C360.229 363.675 338.931 324.162 341.237 316.552C344.539 305.657 380.575 269.816 449.345 209.029L516.252 208.715Z" fill="#915B3C"/>
<path fill-rule="evenodd" clip-rule="evenodd" d="M516.252 208.715C514.089 238.235 374.754 325.145 373.941 327.583C373.58 328.667 388.036 362.926 417.311 430.359L405.131 435.092C360.229 363.675 338.931 324.162 341.237 316.552C344.539 305.657 380.575 269.816 449.345 209.029L516.252 208.715Z" fill="black" fill-opacity="0.1"/>
<path fill-rule="evenodd" clip-rule="evenodd" d="M414.105 415.13L394.22 422.369C352.288 375.057 335.851 336.021 338.848 316.131C340.846 302.871 376.758 267.09 446.583 208.788L517.678 208.788C515.252 277.151 386.106 327.843 384.378 330.756C382.651 333.67 399.65 362.202 414.105 415.13Z" fill="#7D3336"/>
<path fill-rule="evenodd" clip-rule="evenodd" d="M421.792 428.034C424.278 430.942 425.825 433.231 426.434 434.902C427.174 436.935 427.915 440.024 428.657 444.17C426.299 445.028 405.107 452.741 365.082 467.309C361.442 462.449 361.322 459.153 364.723 457.422C368.124 455.691 370.938 454.222 373.165 453.014L397.919 429.086C398.395 428.626 399.155 428.638 399.615 429.115C399.623 429.123 399.631 429.131 399.638 429.14L403.215 433.056C407.069 433.394 410.027 433.188 412.087 432.438C413.761 431.829 415.826 430.312 418.283 427.886L418.283 427.886C419.226 426.955 420.745 426.965 421.676 427.908C421.716 427.949 421.755 427.991 421.792 428.034Z" fill="black"/>
<path fill-rule="evenodd" clip-rule="evenodd" d="M500.231 208.715L562.301 357.727L623.306 483.705H608.913L451.442 208.715H500.231Z" fill="#915B3C"/>
<path fill-rule="evenodd" clip-rule="evenodd" d="M624.167 477.889C625.509 481.471 626.18 484.152 626.18 485.93C626.18 488.093 625.82 491.25 625.099 495.399C622.59 495.399 600.038 495.399 557.444 495.399C555.686 489.587 556.701 486.449 560.489 485.986C564.277 485.522 567.423 485.104 569.929 484.731L601.374 470.712C601.979 470.442 602.688 470.714 602.958 471.319C602.963 471.33 602.967 471.34 602.971 471.35L604.993 476.254C608.499 477.89 611.349 478.708 613.541 478.708C615.322 478.708 617.782 477.988 620.921 476.55L620.921 476.55C622.125 475.997 623.549 476.526 624.101 477.731C624.125 477.783 624.147 477.835 624.167 477.889Z" fill="black"/>
<path fill-rule="evenodd" clip-rule="evenodd" d="M617.797 457.534L585.815 463.532C561.087 427.177 457.599 278.11 446.253 208.715H517.451C555.343 258.88 594.226 420.578 617.797 457.534Z" fill="#B86767"/>
<path fill-rule="evenodd" clip-rule="evenodd" d="M548.248 172.07L521.982 172.169C550.783 236.983 565.801 270.919 567.034 273.976C569.81 280.854 563.936 291.331 561.425 296.96C569.605 300.621 568.734 287.064 579.054 291.865C588.473 296.247 595.638 304.188 606.521 297.473C607.859 296.647 609.325 293.539 605.783 291.11C596.957 285.058 584.239 274.466 582.52 270.98C580.177 266.226 568.753 233.256 548.248 172.07ZM325.47 149.118C330.777 153.542 336.161 158.436 335.216 160.797C334.27 163.158 329.335 162.279 328.517 165.911C327.972 168.332 335.982 168.725 352.546 167.091L390.975 182.326L399.472 161.108L352.112 154.648C342.638 149.378 333.922 145.81 325.965 143.945C323.725 143.88 320.163 144.694 325.47 149.118Z" fill="#784931"/>
<path fill-rule="evenodd" clip-rule="evenodd" d="M476.301 88.764L455.736 90.1341C450.671 135.957 423.083 164.901 361.314 155.102L353.108 214.112C410.84 221.573 461.471 198.459 471.848 135.879C474.534 119.679 476.655 102.82 476.301 88.764Z" fill="#95AB97"/>
<path fill-rule="evenodd" clip-rule="evenodd" d="M486.464 82.7665L486.448 82.7857L455.288 89.9219C455.288 142.979 438.556 177.023 429.725 215.932L429.46 217.112L513.613 217.112C514.799 230.728 515.527 244.722 515.906 259.095H578.917C564.638 183.123 534.501 124.346 488.505 82.7665H486.464Z" fill="#CEE5D0"/>
<path fill-rule="evenodd" clip-rule="evenodd" d="M500.336 140.655C502.505 174.051 501.229 199.536 496.51 217.112L513.613 217.111C511.316 190.732 507.302 165.774 500.779 142.239L500.336 140.655Z" fill="black" fill-opacity="0.1"/>
<path fill-rule="evenodd" clip-rule="evenodd" d="M189.565 42.747C196.72 56.0831 195.869 89.9111 186.622 92.2947C182.935 93.2452 175.079 90.9169 167.084 86.0979L172.102 121.602H142.469L152.67 74.0531C146.981 67.3752 143.131 59.1913 143.774 50.0212C145.628 23.5982 182.41 29.4109 189.565 42.747Z" fill="#915B3C"/>
<path fill-rule="evenodd" clip-rule="evenodd" d="M167.163 29C183.053 29 189.077 35.5516 189.388 41.3469C182.579 43.2182 170.681 43.9388 153.582 43.8163V45.051L168.398 46.2857L170.867 53.6939C166.939 53.4006 164.131 56.0954 161.891 59.7033C160.923 59.0375 159.765 58.6327 158.52 58.6327C155.111 58.6327 152.347 61.673 152.347 64.8061C152.347 68.0653 153.886 70.5853 156.084 71.6546C154.91 73.95 153.73 75.6158 152.347 75.9184C147.011 75.3786 140 62.1151 140 51.2245C140 39.3041 149.485 29 167.163 29Z" fill="#B58143"/>
<path fill-rule="evenodd" clip-rule="evenodd" d="M64.7719 278.668H160.158L172.656 431.77H30.6664L64.7719 278.668Z" fill="#C5CFD6"/>
<path fill-rule="evenodd" clip-rule="evenodd" d="M64.7719 278.668H94.1084L111.667 431.77H30.6664L64.7719 278.668Z" fill="black" fill-opacity="0.1"/>
<path fill-rule="evenodd" clip-rule="evenodd" d="M268.906 252.44L269.261 252.232C279.468 246.514 296.137 254.279 296.126 262.912C296.091 289.043 272.242 412.202 270.997 419.987C269.752 427.773 256.414 429.829 255.637 420.013C254.401 404.393 252.105 350.321 254.402 325.294C255.351 314.962 256.372 305.122 257.378 296.344C244.866 318.941 225.512 351.298 199.317 393.413L185.098 386.917C196.264 350.128 205.42 324.156 212.566 309C224.801 283.051 236.274 260.829 241.103 253.002C248.698 240.688 261.92 244.985 268.906 252.44Z" fill="#915B3C"/>
<path fill-rule="evenodd" clip-rule="evenodd" d="M186.114 366.486L234.919 250.872C246.61 232.065 279.391 254.699 275.404 265.607C266.352 290.372 220.315 370.547 217.618 377.926L186.114 366.486Z" fill="#7D3336"/>
<path fill-rule="evenodd" clip-rule="evenodd" d="M183.404 379.626C180.364 382.129 178.386 384.173 177.471 385.758C176.358 387.686 175.054 390.685 173.561 394.756C175.798 396.047 195.901 407.654 233.87 429.575C238.429 425.299 239.139 421.979 236.001 419.617C232.863 417.254 230.273 415.262 228.232 413.639L207.416 384.959C207.015 384.407 206.243 384.285 205.691 384.685C205.682 384.692 205.672 384.699 205.663 384.706L201.338 388.037C197.37 387.69 194.409 386.953 192.454 385.825C190.867 384.908 189.044 383.001 186.987 380.103L186.987 380.103C186.197 378.991 184.656 378.729 183.544 379.519C183.496 379.553 183.449 379.589 183.404 379.626Z" fill="black"/>
<path fill-rule="evenodd" clip-rule="evenodd" d="M252.514 413.746C251.133 417.434 250.442 420.193 250.442 422.023C250.442 424.25 250.813 427.499 251.555 431.77C254.138 431.77 277.351 431.77 321.194 431.77C323.003 425.788 321.959 422.558 318.06 422.081C314.161 421.604 310.922 421.173 308.343 420.789L275.975 406.359C275.353 406.081 274.623 406.361 274.345 406.984C274.34 406.995 274.336 407.005 274.331 407.016L272.251 412.063C268.641 413.747 265.708 414.589 263.451 414.589C261.618 414.589 259.086 413.849 255.855 412.368V412.368C254.616 411.799 253.15 412.344 252.582 413.583C252.557 413.637 252.534 413.691 252.514 413.746Z" fill="black"/>
<path fill-rule="evenodd" clip-rule="evenodd" d="M299.546 271.795C299.546 304.597 283.968 381.111 283.958 388.334L250.442 388.36C255.348 320.087 257.087 285.583 255.661 284.847C253.521 283.744 167.935 293.392 142.266 293.392C105.252 293.392 89.9395 270.051 88.697 226.811H162.021C176.95 228.409 254.824 244.116 283.744 249.515C296.126 251.827 299.546 262.759 299.546 271.795Z" fill="#B86767"/>
<path fill-rule="evenodd" clip-rule="evenodd" d="M69.7357 189.091L100.395 189.192C66.7763 255.908 49.2471 290.839 47.8072 293.985C44.5674 301.066 51.4233 311.849 54.3551 317.644C44.8062 321.412 45.8237 307.458 33.778 312.4C22.7834 316.91 14.4197 325.084 1.71693 318.172C0.155199 317.322 -1.55621 314.122 2.57876 311.622C12.8805 305.393 27.7259 294.491 29.7317 290.902C32.4671 286.008 45.8017 252.071 69.7357 189.091ZM329.77 165.466C323.576 170.019 317.291 175.057 318.395 177.487C319.498 179.917 325.259 179.013 326.213 182.751C326.849 185.243 317.5 185.648 298.166 183.966L253.311 199.648L243.392 177.807L298.673 171.158C309.732 165.733 319.905 162.061 329.193 160.141C331.806 160.074 335.964 160.912 329.77 165.466Z" fill="#784931"/>
<path fill-rule="evenodd" clip-rule="evenodd" d="M153.714 103.342L177.719 104.752C183.631 151.919 215.833 181.711 287.932 171.625L297.51 232.366C230.123 240.046 171.025 216.254 158.913 151.839C155.777 135.163 153.302 117.81 153.714 103.342Z" fill="#BB9C66"/>
<path fill-rule="evenodd" clip-rule="evenodd" d="M141.852 97.1683L141.871 97.1881L178.242 104.534C178.242 159.147 197.772 194.189 208.08 234.239L208.39 235.454L110.162 235.454C108.779 249.469 107.929 263.874 107.486 278.668H33.9373C50.6039 200.468 85.7815 139.968 139.47 97.1683H141.852Z" fill="#F7D59C"/>
<path fill-rule="evenodd" clip-rule="evenodd" d="M125.66 156.755C123.129 191.13 124.618 217.363 130.126 235.454L110.163 235.453C112.843 208.3 117.529 182.611 125.142 158.385L125.66 156.755Z" fill="black" fill-opacity="0.1"/>
</svg>

<svg width="627" height="496" fill="none" xmlns="http://www.w3.org/2000/svg"><path fill-rule="evenodd" clip-rule="evenodd" d="M484.637 77.617c-13.709 0-18.695-16.413-26.483-25.42-5.573-6.444-15.084-4.522-17.899-13.544C433.176 15.967 452.123 0 476.84 0c24.718 0 41.384 14.003 44.982 35.054 3.599 21.051-12.467 42.563-37.185 42.563Z" fill="#2C1B18"/><path fill-rule="evenodd" clip-rule="evenodd" d="M447.28 32.547c-6.951 12.957-6.125 45.82 2.859 48.136 3.582.924 11.214-1.338 18.981-6.02l-4.875 34.493h28.789l-9.91-46.194c5.527-6.488 9.267-14.439 8.642-23.348-1.801-25.67-37.535-20.023-44.486-7.066Z" fill="#915B3C"/><path fill-rule="evenodd" clip-rule="evenodd" d="M445.553 32.62c5.506 1.034 16.594 6.29 25.435 13.83a7.491 7.491 0 0 1 3.517-.869c4.079 0 7.385 3.223 7.385 7.198 0 1.622-.551 3.119-1.48 4.323 1.75 2.884 2.944 5.914 3.336 9.03 6.065 0 28.2-22.95 6.149-44.54C467.844 0 435.978 30.821 445.553 32.62Z" fill="#2C1B18"/><path fill-rule="evenodd" clip-rule="evenodd" d="M516.252 208.715c-2.163 29.52-141.498 116.43-142.311 118.868-.361 1.084 14.095 35.343 43.37 102.776l-12.18 4.733c-44.902-71.417-66.2-110.93-63.894-118.54 3.302-10.895 39.338-46.736 108.108-107.523l66.907-.314Z" fill="#915B3C"/><path fill-rule="evenodd" clip-rule="evenodd" d="M516.252 208.715c-2.163 29.52-141.498 116.43-142.311 118.868-.361 1.084 14.095 35.343 43.37 102.776l-12.18 4.733c-44.902-71.417-66.2-110.93-63.894-118.54 3.302-10.895 39.338-46.736 108.108-107.523l66.907-.314Z" fill="#000" fill-opacity=".1"/><path fill-rule="evenodd" clip-rule="evenodd" d="m414.105 415.13-19.885 7.239c-41.932-47.312-58.369-86.348-55.372-106.238 1.998-13.26 37.91-49.041 107.735-107.343h71.095c-2.426 68.363-131.572 119.055-133.3 121.968-1.727 2.914 15.272 31.446 29.727 84.374Z" fill="#7D3336"/><path fill-rule="evenodd" clip-rule="evenodd" d="M421.792 428.034c2.486 2.908 4.033 5.197 4.642 6.868.74 2.033 1.481 5.122 2.223 9.268l-63.575 23.139c-3.64-4.86-3.76-8.156-.359-9.887a375.08 375.08 0 0 0 8.442-4.408l24.754-23.928a1.2 1.2 0 0 1 1.719.054l3.577 3.916c3.854.338 6.812.132 8.872-.618 1.674-.609 3.739-2.126 6.196-4.552a2.4 2.4 0 0 1 3.509.148Z" fill="#000"/><path fill-rule="evenodd" clip-rule="evenodd" d="m500.231 208.715 62.07 149.012 61.005 125.978h-14.393l-157.471-274.99h48.789Z" fill="#915B3C"/><path fill-rule="evenodd" clip-rule="evenodd" d="M624.167 477.889c1.342 3.582 2.013 6.263 2.013 8.041 0 2.163-.36 5.32-1.081 9.469h-67.655c-1.758-5.812-.743-8.95 3.045-9.413a380 380 0 0 0 9.44-1.255l31.445-14.019a1.2 1.2 0 0 1 1.597.638l2.022 4.904c3.506 1.636 6.356 2.454 8.548 2.454 1.781 0 4.241-.72 7.38-2.158a2.397 2.397 0 0 1 3.246 1.339Z" fill="#000"/><path fill-rule="evenodd" clip-rule="evenodd" d="m617.797 457.534-31.982 5.998c-24.728-36.355-128.216-185.422-139.562-254.817h71.198c37.892 50.165 76.775 211.863 100.346 248.819Z" fill="#B86767"/><path fill-rule="evenodd" clip-rule="evenodd" d="m548.248 172.07-26.266.099c28.801 64.814 43.819 98.75 45.052 101.807 2.776 6.878-3.098 17.355-5.609 22.984 8.18 3.661 7.309-9.896 17.629-5.095 9.419 4.382 16.584 12.323 27.467 5.608 1.338-.826 2.804-3.934-.738-6.363-8.826-6.052-21.544-16.644-23.263-20.13-2.343-4.754-13.767-37.724-34.272-98.91ZM325.47 149.118c5.307 4.424 10.691 9.318 9.746 11.679-.946 2.361-5.881 1.482-6.699 5.114-.545 2.421 7.465 2.814 24.029 1.18l38.429 15.235 8.497-21.218-47.36-6.46c-9.474-5.27-18.19-8.838-26.147-10.703-2.24-.065-5.802.749-.495 5.173Z" fill="#784931"/><path fill-rule="evenodd" clip-rule="evenodd" d="m476.301 88.764-20.565 1.37c-5.065 45.823-32.653 74.767-94.422 64.968l-8.206 59.01c57.732 7.461 108.363-15.653 118.74-78.233 2.686-16.2 4.807-33.059 4.453-47.115Z" fill="#95AB97"/><path fill-rule="evenodd" clip-rule="evenodd" d="m486.464 82.766-.016.02-31.16 7.136c0 53.057-16.732 87.101-25.563 126.01l-.265 1.18h84.153c1.186 13.616 1.914 27.61 2.293 41.983h63.011c-14.279-75.972-44.416-134.749-90.412-176.329h-2.041Z" fill="#CEE5D0"/><path fill-rule="evenodd" clip-rule="evenodd" d="M500.336 140.655c2.169 33.396.893 58.881-3.826 76.457l17.103-.001c-2.297-26.379-6.311-51.337-12.834-74.872l-.443-1.584Z" fill="#000" fill-opacity=".1"/><path fill-rule="evenodd" clip-rule="evenodd" d="M189.565 42.747c7.155 13.336 6.304 47.164-2.943 49.548-3.687.95-11.543-1.378-19.538-6.197l5.018 35.504h-29.633l10.201-47.549c-5.689-6.678-9.539-14.862-8.896-24.032 1.854-26.423 38.636-20.61 45.791-7.274Z" fill="#915B3C"/><path fill-rule="evenodd" clip-rule="evenodd" d="M167.163 29c15.89 0 21.914 6.552 22.225 12.347-6.809 1.871-18.707 2.592-35.806 2.47v1.234l14.816 1.235 2.469 7.408c-3.928-.293-6.736 2.401-8.976 6.01a5.938 5.938 0 0 0-3.371-1.071c-3.409 0-6.173 3.04-6.173 6.173 0 3.26 1.539 5.78 3.737 6.849-1.174 2.295-2.354 3.96-3.737 4.263C147.011 75.378 140 62.115 140 51.224 140 39.304 149.485 29 167.163 29Z" fill="#B58143"/><path fill-rule="evenodd" clip-rule="evenodd" d="M64.772 278.668h95.386l12.498 153.102H30.666l34.106-153.102Z" fill="#C5CFD6"/><path fill-rule="evenodd" clip-rule="evenodd" d="M64.772 278.668h29.336l17.559 153.102h-81l34.105-153.102Z" fill="#000" fill-opacity=".1"/><path fill-rule="evenodd" clip-rule="evenodd" d="m268.906 252.44.355-.208c10.207-5.718 26.876 2.047 26.865 10.68-.035 26.131-23.884 149.29-25.129 157.075-1.245 7.786-14.583 9.842-15.36.026-1.236-15.62-3.532-69.692-1.235-94.719.949-10.332 1.97-20.172 2.976-28.95-12.512 22.597-31.866 54.954-58.061 97.069l-14.219-6.496c11.166-36.789 20.322-62.761 27.468-77.917 12.235-25.949 23.708-48.171 28.537-55.998 7.595-12.314 20.817-8.017 27.803-.562Z" fill="#915B3C"/><path fill-rule="evenodd" clip-rule="evenodd" d="m186.114 366.486 48.805-115.614c11.691-18.807 44.472 3.827 40.485 14.735-9.052 24.765-55.089 104.94-57.786 112.319l-31.504-11.44Z" fill="#7D3336"/><path fill-rule="evenodd" clip-rule="evenodd" d="M183.404 379.626c-3.04 2.503-5.018 4.547-5.933 6.132-1.113 1.928-2.417 4.927-3.91 8.998l60.309 34.819c4.559-4.276 5.269-7.596 2.131-9.958-3.138-2.363-5.728-4.355-7.769-5.978l-20.816-28.68a1.236 1.236 0 0 0-1.725-.274l-.028.021-4.325 3.331c-3.968-.347-6.929-1.084-8.884-2.212-1.587-.917-3.41-2.824-5.467-5.722a2.469 2.469 0 0 0-3.583-.477ZM252.514 413.746c-1.381 3.688-2.072 6.447-2.072 8.277 0 2.227.371 5.476 1.113 9.747h69.639c1.809-5.982.765-9.212-3.134-9.689a387.621 387.621 0 0 1-9.717-1.292l-32.368-14.43a1.234 1.234 0 0 0-1.63.625l-.014.032-2.08 5.047c-3.61 1.684-6.543 2.526-8.8 2.526-1.833 0-4.365-.74-7.596-2.221a2.468 2.468 0 0 0-3.341 1.378Z" fill="#000"/><path fill-rule="evenodd" clip-rule="evenodd" d="M299.546 271.795c0 32.802-15.578 109.316-15.588 116.539l-33.516.026c4.906-68.273 6.645-102.777 5.219-103.513-2.14-1.103-87.726 8.545-113.395 8.545-37.014 0-52.326-23.341-53.569-66.581h73.324c14.929 1.598 92.803 17.305 121.723 22.704 12.382 2.312 15.802 13.244 15.802 22.28Z" fill="#B86767"/><path fill-rule="evenodd" clip-rule="evenodd" d="m69.736 189.091 30.659.101c-33.619 66.716-51.148 101.647-52.588 104.793-3.24 7.081 3.616 17.864 6.548 23.659-9.549 3.768-8.531-10.186-20.577-5.244-10.995 4.51-19.358 12.684-32.061 5.772-1.562-.85-3.273-4.05.862-6.55 10.301-6.229 25.147-17.131 27.153-20.72 2.735-4.894 16.07-38.831 40.004-101.811Zm260.034-23.625c-6.194 4.553-12.479 9.591-11.375 12.021 1.103 2.43 6.864 1.526 7.818 5.264.636 2.492-8.713 2.897-28.047 1.215l-44.855 15.682-9.919-21.841 55.281-6.649c11.059-5.425 21.232-9.097 30.52-11.017 2.613-.067 6.771.771.577 5.325Z" fill="#784931"/><path fill-rule="evenodd" clip-rule="evenodd" d="m153.714 103.342 24.005 1.41c5.912 47.167 38.114 76.959 110.213 66.873l9.578 60.741c-67.387 7.68-126.485-16.112-138.597-80.527-3.136-16.676-5.611-34.029-5.199-48.497Z" fill="#BB9C66"/><path fill-rule="evenodd" clip-rule="evenodd" d="m141.852 97.168.019.02 36.371 7.346c0 54.613 19.53 89.655 29.838 129.705l.31 1.215h-98.228c-1.383 14.015-2.233 28.42-2.676 43.214H33.937c16.667-78.2 51.844-138.7 105.533-181.5h2.382Z" fill="#F7D59C"/><path fill-rule="evenodd" clip-rule="evenodd" d="M125.66 156.755c-2.531 34.375-1.042 60.608 4.466 78.699l-19.963-.001c2.68-27.153 7.366-52.842 14.979-77.068l.518-1.63Z" fill="#000" fill-opacity=".1"/></svg>
